Suru++-Ubuntu/actions/symbolic/tag-new-symbolic.svg

<svg width="16" height="16" version="1.1" xmlns="http://www.w3.org/2000/svg">
 <g transform="matrix(1.0672359,0,0,1.0672359,-868.79683,32.017076)" style="fill:#808080">
  <path transform="matrix(.93699996 0 0 .93699996 814.0626 -29.999999)" d="m4.6367188 0.5c-4.3008113 0-4.1367188-0.16409145-4.1367188 4.1367188 0 2.3011793 0.03692294 2.9742006 0.16992188 3.2246093 0.18891142 0.3556767 7.1444294 7.3113129 7.5097656 7.5097659 0.4179616 0.227036 0.9374138 0.151898 1.4179687-0.205078 0.5370758-0.39895 5.4362848-5.3300528 5.7167968-5.7539066 0.221953-0.3354312 0.248402-0.8435288 0.0625-1.2109375-0.184504-0.3646436-7.1324017-7.3307015-7.5136718-7.5332032-0.2504055-0.13299253-0.9253884-0.16796875-3.2265624-0.16796875zm-1.5625 1.5292969c0.7269652-0.050879 1.406379 0.6841446 1.0546874 1.5332031-0.0796157 0.1922081-0.2915143 0.42586-0.4726562 0.5195312-1.1591142 0.5994014-2.2080807-0.7958287-1.2890625-1.7148437 0.2160326-0.2160331 0.4647095-0.320931 0.7070313-0.3378906zm5.5097656 4.3515625h1v2h1.9999996v1h-1.9999996v1.9999996h-1v-1.9999996h-2v-1h2v-2z" style="fill:#808080"/>
 </g>
</svg>

<?xml version="1.0" encoding="UTF-8" standalone="no"?>
<svg
   xmlns:dc="http://purl.org/dc/elements/1.1/"
   xmlns:cc="http://creativecommons.org/ns#"
   xmlns:rdf="http://www.w3.org/1999/02/22-rdf-syntax-ns#"
   xmlns:svg="http://www.w3.org/2000/svg"
   xmlns="http://www.w3.org/2000/svg"
   xmlns:sodipodi="http://sodipodi.sourceforge.net/DTD/sodipodi-0.dtd"
   xmlns:inkscape="http://www.inkscape.org/namespaces/inkscape"
   height="16"
   width="16"
   version="1.1"
   id="svg6"
   sodipodi:docname="uu.svg"
   inkscape:version="0.92.3 (2405546, 2018-03-11)">
  <metadata
     id="metadata12">
    <rdf:RDF>
      <cc:Work
         rdf:about="">
        <dc:format>image/svg+xml</dc:format>
        <dc:type
           rdf:resource="http://purl.org/dc/dcmitype/StillImage" />
        <dc:title></dc:title>
      </cc:Work>
    </rdf:RDF>
  </metadata>
  <defs
     id="defs10" />
  <sodipodi:namedview
     pagecolor="#ffffff"
     bordercolor="#666666"
     borderopacity="1"
     objecttolerance="10"
     gridtolerance="10"
     guidetolerance="10"
     inkscape:pageopacity="0"
     inkscape:pageshadow="2"
     inkscape:window-width="1920"
     inkscape:window-height="1009"
     id="namedview8"
     showgrid="false"
     inkscape:zoom="14.75"
     inkscape:cx="-28.305085"
     inkscape:cy="8"
     inkscape:window-x="0"
     inkscape:window-y="34"
     inkscape:window-maximized="1"
     inkscape:current-layer="g4" />
  <g
     transform="matrix(1.0672359,0,0,1.0672359,-868.79683,32.017076)"
     id="g4"
     style="fill:#808080;fill-opacity:1">
    <path
       style="fill:#808080;fill-opacity:1;stroke-width:0.11722736"
       d="M 4.6367188 0.5 C 0.33590749 0.5 0.5 0.33590855 0.5 4.6367188 C 0.5 6.9378981 0.53692294 7.6109194 0.66992188 7.8613281 C 0.8588333 8.2170048 7.8143513 15.172641 8.1796875 15.371094 C 8.5976491 15.59813 9.1171013 15.522992 9.5976562 15.166016 C 10.134732 14.767066 15.033941 9.8359632 15.314453 9.4121094 C 15.536406 9.0766782 15.562855 8.5685806 15.376953 8.2011719 C 15.192449 7.8365283 8.2445513 0.87047036 7.8632812 0.66796875 C 7.6128757 0.53497622 6.9378928 0.5 4.6367188 0.5 z M 3.0742188 2.0292969 C 3.801184 1.9784179 4.4805978 2.7134415 4.1289062 3.5625 C 4.0492905 3.7547081 3.8373919 3.98836 3.65625 4.0820312 C 2.4971358 4.6814326 1.4481693 3.2862025 2.3671875 2.3671875 C 2.5832201 2.1511544 2.831897 2.0462565 3.0742188 2.0292969 z M 8.5839844 6.3808594 L 9.5839844 6.3808594 L 9.5839844 8.3808594 L 11.583984 8.3808594 L 11.583984 9.3808594 L 9.5839844 9.3808594 L 9.5839844 11.380859 L 8.5839844 11.380859 L 8.5839844 9.3808594 L 6.5839844 9.3808594 L 6.5839844 8.3808594 L 8.5839844 8.3808594 L 8.5839844 6.3808594 z "
       transform="matrix(0.93699996,0,0,0.93699996,814.0626,-29.999999)"
       id="path817" />
  </g>
</svg>
